src/images/footer-whatcapp.svg

<svg width="30" height="30" viewBox="0 0 30 30" fill="none" xmlns="http://www.w3.org/2000/svg">
<path d="M15.1934 29.7195C23.2015 29.7195 29.6934 23.2276 29.6934 15.2195C29.6934 7.21135 23.2015 0.719482 15.1934 0.719482C7.18523 0.719482 0.693359 7.21135 0.693359 15.2195C0.693359 23.2276 7.18523 29.7195 15.1934 29.7195Z" fill="#014C69"/>
<path fill-rule="evenodd" clip-rule="evenodd" d="M15.6712 23.2866H15.6676C14.2246 23.2861 12.8067 22.9241 11.5473 22.2371L6.97656 23.4361L8.19977 18.9682C7.44523 17.6606 7.0482 16.1774 7.04885 14.6577C7.05074 9.90382 10.9186 6.03613 15.6711 6.03613C17.9776 6.03713 20.1425 6.93505 21.7703 8.56482C23.3982 10.1945 24.2942 12.3608 24.2933 14.6645C24.2914 19.4174 20.425 23.2847 15.6712 23.2866ZM11.7591 20.6762L12.0208 20.8315C13.121 21.4845 14.3823 21.83 15.6683 21.8305H15.6712C19.6211 21.8305 22.8359 18.6156 22.8375 14.664C22.8382 12.7492 22.0935 10.9487 20.7405 9.59406C19.3875 8.23946 17.5881 7.4931 15.674 7.49244C11.721 7.49244 8.50618 10.707 8.50461 14.6582C8.50405 16.0124 8.88293 17.3311 9.6003 18.4721L9.77069 18.7432L9.04673 21.3877L11.7591 20.6762ZM19.7199 16.5209C19.8702 16.5935 19.9716 16.6425 20.0149 16.7149C20.0688 16.8047 20.0688 17.236 19.8894 17.7394C19.7098 18.2426 18.8491 18.7019 18.4351 18.7637C18.064 18.8192 17.5943 18.8423 17.0782 18.6783C16.7653 18.5791 16.364 18.4465 15.85 18.2245C13.8303 17.3524 12.4654 15.3949 12.2075 15.0249C12.1894 14.999 12.1768 14.9809 12.1697 14.9715L12.168 14.9692C12.054 14.817 11.29 13.7978 11.29 12.7428C11.29 11.7505 11.7775 11.2303 12.0019 10.9909C12.0172 10.9745 12.0314 10.9594 12.044 10.9456C12.2415 10.7299 12.4749 10.676 12.6185 10.676C12.7621 10.676 12.9059 10.6773 13.0314 10.6836C13.0469 10.6844 13.063 10.6843 13.0797 10.6842C13.2052 10.6835 13.3618 10.6825 13.5162 11.0534C13.5756 11.1962 13.6625 11.4078 13.7542 11.631C13.9395 12.0823 14.1444 12.5809 14.1804 12.6531C14.2343 12.7609 14.2702 12.8867 14.1984 13.0305C14.1876 13.0521 14.1776 13.0725 14.1681 13.0919C14.1142 13.202 14.0745 13.283 13.9829 13.3899C13.9469 13.4319 13.9097 13.4772 13.8725 13.5226C13.7984 13.6128 13.7243 13.7031 13.6598 13.7674C13.5519 13.8748 13.4396 13.9913 13.5653 14.207C13.691 14.4227 14.1234 15.1282 14.7638 15.6995C15.4523 16.3136 16.0506 16.5731 16.3539 16.7047C16.4132 16.7303 16.4611 16.7512 16.4963 16.7688C16.7117 16.8766 16.8374 16.8586 16.9631 16.7149C17.0887 16.5711 17.5016 16.0858 17.6452 15.8701C17.7888 15.6545 17.9325 15.6904 18.1299 15.7623C18.3274 15.8342 19.3866 16.3554 19.6021 16.4632C19.6441 16.4843 19.6834 16.5033 19.7199 16.5209Z" fill="#FDFDFD"/>
</svg>

<svg xmlns="http://www.w3.org/2000/svg" width="30" height="30" fill="none"><path fill="#014C69" d="M15.193 29.72c8.008 0 14.5-6.492 14.5-14.5 0-8.009-6.492-14.5-14.5-14.5S.693 7.21.693 15.22c0 8.008 6.492 14.5 14.5 14.5Z"/><path fill="#FDFDFD" fill-rule="evenodd" d="M15.671 23.287h-.003a8.614 8.614 0 0 1-4.12-1.05l-4.571 1.2L8.2 18.967a8.606 8.606 0 0 1-1.151-4.31c.002-4.754 3.87-8.622 8.622-8.622a8.566 8.566 0 0 1 6.1 2.529 8.57 8.57 0 0 1 2.522 6.1c-.002 4.752-3.868 8.62-8.622 8.622Zm-3.912-2.61.262.154c1.1.654 2.361.999 3.647 1h.003c3.95 0 7.165-3.215 7.166-7.167a7.124 7.124 0 0 0-2.096-5.07 7.118 7.118 0 0 0-5.067-2.102c-3.953 0-7.168 3.215-7.17 7.166A7.15 7.15 0 0 0 9.6 18.472l.17.271-.723 2.645 2.712-.712Zm7.96-4.156c.151.072.253.121.296.194.054.09.054.521-.126 1.024-.18.504-1.04.963-1.454 1.025-.371.055-.84.078-1.357-.086a12.35 12.35 0 0 1-1.228-.454c-2.02-.872-3.385-2.83-3.643-3.2l-.037-.052-.002-.003c-.114-.152-.878-1.171-.878-2.226 0-.992.488-1.513.712-1.752l.042-.045a.791.791 0 0 1 .574-.27c.144 0 .288.001.413.008h.049c.125 0 .282-.002.436.37.06.142.146.354.238.577.186.451.39.95.426 1.022.054.108.09.234.018.377l-.03.062c-.054.11-.093.191-.185.298a7.932 7.932 0 0 0-.11.133c-.075.09-.149.18-.213.244-.108.108-.22.224-.095.44.126.216.558.921 1.199 1.492.688.615 1.287.874 1.59 1.006.06.025.107.046.142.064.216.108.341.09.467-.054s.539-.63.682-.845c.144-.215.288-.18.485-.108s1.257.593 1.472.701l.118.058Z" clip-rule="evenodd"/></svg>
